modules/feather/icons/folder-plus.svg

<?xml version="1.0" encoding="UTF-8"?>
<svg width="24px" height="24px" viewBox="0 0 24 24" version="1.1" xmlns="http://www.w3.org/2000/svg" xmlns:xlink="http://www.w3.org/1999/xlink">
    <g id="folder-plus" fill-rule="evenodd">
        <path d="M13,13 L15,13 C15.5522847,13 16,13.4477153 16,14 C16,14.5522847 15.5522847,15 15,15 L13,15 L13,17 C13,17.5522847 12.5522847,18 12,18 C11.4477153,18 11,17.5522847 11,17 L11,15 L9,15 C8.44771525,15 8,14.5522847 8,14 C8,13.4477153 8.44771525,13 9,13 L11,13 L11,11 C11,10.4477153 11.4477153,10 12,10 C12.5522847,10 13,10.4477153 13,11 L13,13 Z M11.5351838,5 L20,5 C21.6568542,5 23,6.34314575 23,8 L23,19 C23,20.6568542 21.6568542,22 20,22 L4,22 C2.34314575,22 1,20.6568542 1,19 L1,5 C1,3.34314575 2.34314575,2 4,2 L9,2 C9.33435319,2 9.64658452,2.16710114 9.83205029,2.4452998 L11.5351838,5 Z M8.46481624,4 L4,4 C3.44771525,4 3,4.44771525 3,5 L3,19 C3,19.5522847 3.44771525,20 4,20 L20,20 C20.5522847,20 21,19.5522847 21,19 L21,8 C21,7.44771525 20.5522847,7 20,7 L11,7 C10.6656468,7 10.3534155,6.83289886 10.1679497,6.5547002 L8.46481624,4 Z" id="Combined-Shape" fill="#000000" fill-rule="nonzero"></path>
    </g>
</svg>

<svg width="24" height="24" viewBox="0 0 24 24" xmlns="http://www.w3.org/2000/svg"><path d="M13 13h2a1 1 0 0 1 0 2h-2v2a1 1 0 0 1-2 0v-2H9a1 1 0 0 1 0-2h2v-2a1 1 0 0 1 2 0v2zm-1.465-8H20a3 3 0 0 1 3 3v11a3 3 0 0 1-3 3H4a3 3 0 0 1-3-3V5a3 3 0 0 1 3-3h5a1 1 0 0 1 .832.445L11.535 5zm-3.07-1H4a1 1 0 0 0-1 1v14a1 1 0 0 0 1 1h16a1 1 0 0 0 1-1V8a1 1 0 0 0-1-1h-9a1 1 0 0 1-.832-.445L8.465 4z" fill-rule="nonzero"/></svg>
